X:628
T:
S:Från Gotlands fornsal.
R:kadrilj
O:Gotland
M:2/4
L:1/16
K:C
G2|c2c2 c2ec|G2G2 G2ce|d2d2 BcdB|cBcd c2eg|
c'2c'2g2e2|a2a2f2d2|B2BA BcdB|c4 z2:|
|:Bc|d3c BdAB|G4 D2B2|G2DB A2Dc|B2G2G2 Bc|
Bcde fefd| c2G2 e2c2|Bcde fefd|c4 z2:|
|:EF|G2GF E2ED|CB,CD C2DE|F2FE D2DC|B,2D2G,2 EF|
G2GF E2ED|CB,CD C2E2|D2F2 G,2B,D|C2c2C2:|
|:G2|G^FEF D2EF|G2GA B2G2|G^FEF D2EF|G2G2G2 EF|
G2GF FEDE|CCCD E2C2|D2F2 G,2B,D|C2c2C2:|

